static/images/team/andrea/tribal.svg

<svg xmlns="http://www.w3.org/2000/svg" width="163" height="121" fill="none" viewBox="0 0 163 121"><g clip-path="url(#clip0)"><path fill="#FCDCD9" d="M5.39012 19.39C8.22012 19.39 10.1901 19.39 12.5701 19.39C12.5701 15.56 12.3601 11.79 12.6801 8.05999C12.8001 6.61999 13.3101 3.91999 14.9001 3.89999C16.3301 3.87999 16.8301 6.30999 17.0001 7.61999C17.5001 11.38 17.5801 15.2 17.8501 19.32C19.3701 19.44 20.7901 19.54 22.8601 19.7C22.8601 15.46 22.6601 11.52 22.9701 7.61999C23.0801 6.18999 23.6101 3.46999 25.1901 3.47999C26.8001 3.48999 27.3701 6.26999 27.4201 7.69999C27.7601 18.67 27.7601 29.65 28.0001 40.63C28.3601 56.92 28.8301 73.21 29.2601 89.51C29.2801 90.18 29.2501 90.85 29.3401 91.5C30.5801 100.85 30.5901 100.87 20.8701 100.85C15.8801 100.84 10.8901 100.72 5.90012 100.71C2.47012 100.71 1.10012 99.61 1.11012 95.67C1.15012 72.55 0.860122 49.42 0.600122 26.3C0.530122 20.05 -0.0498781 13.81 0.000121877 7.56999C0.0201219 5.99999 0.610122 2.89999 2.38012 2.87999C4.00012 2.85999 4.49012 5.64999 4.67012 7.13999C5.17012 11.06 5.17012 15.03 5.39012 19.39ZM13.4201 95.45C13.4201 75.63 13.4201 56.34 13.4201 36.95C10.4401 36.95 8.39012 36.95 6.53012 36.95C6.53012 56.36 6.53012 75.42 6.53012 94.87C9.06012 95.09 11.1701 95.26 13.4201 95.45ZM19.2801 37.4C19.2801 56.23 19.2001 74.46 19.4501 92.69C19.4701 93.92 21.9101 95.11 23.2201 96.33C23.2201 76.93 23.2101 58.68 23.2301 40.43C23.2301 36.83 21.1801 36.85 19.2801 37.4ZM12.6501 31.07C12.6501 28.7 12.6501 26.94 12.6501 25.1C10.2401 25.1 8.05012 25.1 5.59012 25.1C5.69012 27.09 5.77012 28.69 5.87012 30.57C8.20012 30.73 10.2701 30.89 12.6501 31.07ZM22.7401 32.05C22.7401 29.43 22.7401 27.34 22.7401 25.02C21.0001 25.02 19.4601 25.02 17.9501 25.02C17.9501 27.39 17.9501 29.43 17.9501 31.55C19.6201 31.72 20.9301 31.86 22.7401 32.05Z"/><path fill="#FCDCD9" d="M99.7801 114.15C99.7801 106.21 99.7801 98.43 99.7801 89.69C93.8201 89.69 88.0401 89.77 82.2601 89.66C79.2801 89.6 76.2801 89.32 73.3401 88.83C72.4401 88.68 70.9201 87.86 70.9001 86.79C70.8801 85.6 72.5401 84.6 73.5101 84.44C76.4401 83.98 79.4501 83.99 83.0201 83.79C80.3401 79.1 77.7801 74.73 75.3501 70.3C74.2501 68.29 73.0601 66.21 72.5601 64.02C72.0001 61.57 73.0901 59.94 76.0601 59.94C85.2101 59.95 94.3701 59.71 103.52 59.85C104.85 59.87 106.65 61.16 107.3 62.36C107.77 63.23 107.02 65.18 106.24 66.22C101.88 72.04 97.3501 77.74 92.0401 84.56C95.2801 84.56 97.3401 84.62 99.4001 84.55C103.21 84.41 104.77 86.19 104.72 89.98C104.6 98.07 104.68 106.17 104.68 114.71C120.43 114.71 135.06 114.67 149.7 114.74C152.85 114.76 156.02 115 159.12 115.51C160.33 115.71 162.41 116.32 162.5 117.67C162.59 119.14 160.32 120.38 159.17 120.43C154.03 120.68 148.86 120.43 143.7 120.38C130.74 120.26 117.78 120.19 104.82 120C102.18 119.96 99.4801 119.73 96.9301 119.11C95.6101 118.79 93.2501 118 93.3501 116.52C93.4601 114.91 96.1301 114.86 97.5901 114.19C98.1401 113.95 98.8901 114.15 99.7801 114.15ZM88.0401 80.33C91.9401 75.28 95.4101 70.79 99.2201 65.87C92.1301 65.87 85.9601 65.87 79.5001 65.87C82.4301 70.83 85.0901 75.34 88.0401 80.33Z"/><path fill="#FCDCD9" d="M117.32 26.65C116.82 24.92 116.03 23.2 115.89 21.44C115.61 17.8 115.51 14.12 115.65 10.47C115.77 7.30002 114.52 5.79002 111.37 5.80002C89.5699 5.84002 67.7699 5.88002 45.9699 5.94002C45.5399 5.94002 45.1099 6.20002 45.0699 6.22002C50.2499 11.73 55.4899 17.21 60.5899 22.82C61.4499 23.77 62.4399 25.55 62.0899 26.43C61.5699 27.73 59.9099 29.43 58.7099 29.45C51.7399 29.58 44.7499 29.36 37.7799 28.98C36.9999 28.94 35.7499 27.23 35.6599 26.22C35.0699 19.1 34.4899 11.96 34.5399 4.83002C34.5499 3.55002 37.4399 1.26002 39.0799 1.19002C48.1999 0.790018 57.3499 1.01002 66.4899 0.860018C79.7699 0.630018 93.0399 -0.129982 106.31 0.0500176C122.02 0.270018 119.72 0.370018 120.67 14.08C120.85 16.73 120.9 19.43 120.62 22.06C120.45 23.65 119.54 25.16 118.96 26.7C118.44 26.67 117.88 26.66 117.32 26.65ZM53.1799 23.98C53.2899 23.6 53.3999 23.22 53.5099 22.85C49.2299 18.83 44.9599 14.82 39.7299 9.91002C40.2299 15.22 40.5899 19.1 40.9899 23.43C45.1199 23.61 49.1499 23.79 53.1799 23.98Z"/><path fill="#FCDCD9" d="M120.36 63.53C123.44 63.86 125.65 63.78 127.64 64.41C129.22 64.91 131.34 66.03 131.73 67.32C132.11 68.57 130.94 70.73 129.83 71.91C126.72 75.24 123.29 78.28 119.45 81.95C129.58 81.95 138.67 81.93 147.76 81.96C151.24 81.97 154.74 81.84 158.18 82.24C159.45 82.39 161.66 83.3 161.75 84.78C161.84 86.31 159.66 87.53 158.39 87.79C156.17 88.25 153.77 87.78 151.44 87.78C138.61 87.8 125.79 87.88 112.96 87.81C111.67 87.8 109.66 87.72 109.1 86.47C108.55 85.23 109.8 83.64 110.68 82.75C114.78 78.64 119.08 74.73 124.31 69.8C120.58 69.34 118.2 69.2 115.9 68.73C111.96 67.91 111.26 65.9 113.91 62.88C116.94 59.44 120.16 56.16 123.67 52.41C120.29 51.81 117.34 51.5 114.52 50.74C111 49.79 110.33 47.49 112.96 44.93C117.47 40.52 122.16 36.28 126.96 32.18C127.78 31.48 129.95 30.78 130.84 31.76C131.79 32.81 130.8 35.02 129.97 35.87C126.68 39.25 123.07 42.32 118.91 46.11C122.76 46.75 125.53 47.04 128.21 47.69C132.76 48.8 133.37 50.85 130.12 54.2C127.14 57.24 123.98 60.08 120.36 63.53Z"/><path fill="#FCDCD9" d="M74.96 17.8C75.09 16.28 77.16 13.83 78.53 13.69C85.29 12.99 92.12 12.94 98.92 12.64C102.99 12.46 105.01 13.98 104.97 18.45C104.88 29.06 105.29 39.68 105.11 50.28C105.09 51.5 102.71 53.67 101.37 53.7C93.5601 53.93 85.74 53.7 77.92 53.54C74.82 53.48 74.21 51.37 74.24 48.73C74.32 43.73 74.52 23.08 74.96 17.8ZM92 18.5C92 28.59 92 38.3 92 48.16C94.49 48.16 96.7 48.16 99.31 48.16C99.31 38.03 99.31 28.22 99.31 18.5C96.62 18.5 94.36 18.5 92 18.5ZM86.34 48.59C86.34 38.25 86.34 28.68 86.34 18.85C84.26 18.85 82.2101 18.85 79.9401 18.85C79.9401 28.68 79.9401 38.23 79.9401 48.14C81.93 48.28 83.68 48.4 86.34 48.59Z"/><path fill="#FCDCD9" d="M152.75 14.28C155.79 17.6 158.51 20.29 160.85 23.29C161.62 24.28 162.71 26.47 161.66 27.43C160.55 28.45 158.46 27.05 157.36 26.21C154.49 24.02 151.9 21.46 149.08 18.95C146.15 21.34 143.73 23.63 140.97 25.41C139.91 26.09 137.55 26.79 136.63 25.65C135.71 24.51 136.89 22.43 137.74 21.46C139.78 19.13 142.27 17.18 145.25 14.45C142.37 11.83 139.63 9.66002 137.33 7.09002C136.47 6.12002 135.35 3.88002 136.35 2.76002C137.43 1.54002 140.17 2.40002 141.11 3.27002C143.52 5.49002 145.37 8.32002 147.55 11.04C151.06 7.88002 153.22 5.53002 155.8 3.78002C157.26 2.79002 159.89 1.01002 161.21 2.35002C162.55 3.71002 160.77 6.44002 159.68 7.80002C157.75 10.22 155.15 12.1 152.75 14.28Z"/><path fill="#FCDCD9" d="M158.54 93.62C159.89 93.72 162.39 94.3 162.44 95.81C162.49 97.44 159.73 98.42 158.38 98.42C142.96 98.37 127.53 98.13 112.12 97.71C110.99 97.68 108.77 96.44 108.81 94.99C108.85 93.52 111.11 92.5 112.31 92.45C118.28 92.18 149.13 92.9 158.54 93.62Z"/><path fill="#FCDCD9" d="M146.72 54.76C146.72 48.76 146.57 42.75 146.83 36.77C146.89 35.35 147.6 32.62 149.21 32.61C150.84 32.6 151.65 35.38 151.67 36.78C151.83 48.61 151.79 60.44 151.55 72.27C151.52 73.86 150.94 77.04 149.16 77C147.41 76.96 147.08 73.86 147 72.25C146.74 66.43 146.78 54.76 146.72 54.76Z"/><path fill="#FCDCD9" d="M162 73.16C161.95 74.46 161.37 76.88 159.9 76.98C158.47 77.08 157.4 74.71 157.39 73.56C157.28 61.43 157.35 49.3 157.62 37.18C157.65 35.67 158.31 32.56 160.01 32.69C161.8 32.82 161.77 36.03 161.84 37.73C162.08 43.55 162.22 67.18 162 73.16Z"/><path fill="#FCDCD9" d="M60.6 69.57C60.67 68.24 61.29 65.86 62.78 65.7C64.25 65.54 65.61 67.83 65.66 68.96C66.11 79.09 66.36 89.22 66.37 99.36C66.37 100.79 65.64 103.67 63.98 103.67C62.19 103.67 61.52 100.61 61.41 99C61.07 94.03 60.34 74.37 60.6 69.57Z"/><path fill="#FCDCD9" d="M42.62 84.55C42.62 90.55 42.8 94.89 42.52 99.2C42.42 100.79 42.23 103.7 40.54 103.85C38.75 104.01 37.73 100.94 37.62 99.39C37.1 92.09 37.02 84.76 36.82 77.44C36.75 74.94 36.49 72.41 36.83 69.96C36.99 68.8 37.81 66.79 39.15 66.74C40.5 66.68 41.65 68.68 41.75 69.77C42.29 75.22 42.43 80.72 42.62 84.55Z"/><path fill="#FCDCD9" d="M54.23 89.41C54.23 92.9 54.45 96.42 54.11 99.88C53.99 101.13 53.12 103.4 51.67 103.42C50.29 103.43 49.4 101.28 49.3 100.11C48.96 96.31 48.4 79.38 48.09 74.75C48.02 73.76 47.72 72.6 48.1 71.79C48.98 69.88 49.19 66.18 51.3 66.31C53.36 66.44 53.57 70.06 53.68 71.99C53.99 77.78 54.08 89.41 54.23 89.41Z"/><path fill="#FCDCD9" d="M142.12 55.21C142.12 61.03 142.26 66.85 142.02 72.66C141.96 74.13 141.56 76.92 139.95 76.99C138.4 77.06 137.62 74.36 137.61 73.02C137.46 60.9 137.51 48.78 137.69 36.66C137.71 35.32 138.1 32.72 139.59 32.67C141.17 32.62 141.82 35.37 141.87 36.76C142.12 42.9 141.98 49.05 141.98 55.2C142.03 55.21 142.07 55.21 142.12 55.21Z"/><path fill="#FCDCD9" d="M50.5701 40.44C46.4201 40.44 42.2601 40.65 38.1401 40.31C36.9201 40.21 34.7001 39.15 34.6801 37.67C34.6601 36.3 36.7501 35.11 37.8001 35.1C46.7401 35.04 55.6801 35.21 64.6201 35.53C65.5301 35.56 67.3201 36.62 67.2701 37.81C67.2101 39.17 65.1401 40.09 64.0001 40.16C59.5401 40.44 55.0601 40.27 50.5801 40.27C50.5701 40.34 50.5701 40.39 50.5701 40.44Z"/><path fill="#FCDCD9" d="M55.45 50.94C50 50.94 44.54 51.13 39.12 50.79C37.87 50.71 35.34 49.33 35.54 47.75C35.73 46.26 38.2 45.78 39.55 45.76C47.36 45.65 55.18 45.71 62.98 46.02C64.38 46.08 67.11 46.79 67.1 48.4C67.09 50.01 64.4 50.51 62.92 50.75C60.49 51.14 57.94 50.86 55.45 50.86C55.44 50.88 55.45 50.91 55.45 50.94Z"/><path fill="#FCDCD9" d="M51.6701 55.75C55.4801 55.75 59.3001 55.57 63.0901 55.85C64.3701 55.95 66.6401 56.55 66.7801 57.98C66.9101 59.34 64.7801 60.59 63.7401 60.63C55.1401 60.91 46.5301 60.98 37.9301 60.84C36.9401 60.82 34.9401 59.6 35.0001 58.28C35.0601 56.91 37.1301 55.97 38.2701 55.9C42.7201 55.62 47.2001 55.79 51.6801 55.79C51.6701 55.77 51.6701 55.76 51.6701 55.75Z"/><path fill="#FCDCD9" d="M131.08 22.07C130.91 23.38 130.24 25.72 128.77 25.76C127.35 25.8 126.43 23.51 126.35 22.31C125.95 16.54 125.76 10.73 125.9 4.95001C125.93 3.61001 126.87 0.970009 128.46 1.00001C129.92 1.03001 130.51 3.41001 130.66 4.72001C131 7.67001 131.44 19.31 131.08 22.07Z"/><path fill="#FCDCD9" d="M83.8199 94.27C86.3999 94.39 89.7399 94.34 92.9999 94.82C94.0899 94.98 96.0399 96.05 95.9699 97.37C95.8999 98.7 93.8099 99.6 92.7399 99.59C86.4599 99.56 80.1699 99.29 73.9099 98.82C72.8199 98.74 70.7699 97.76 70.7899 96.44C70.8099 95.24 72.6699 94.47 73.6799 94.38C76.8099 94.1 79.9599 94.27 83.8199 94.27Z"/><path fill="#FCDCD9" d="M118.18 33.73C118.17 36.19 114.98 36.3 113.86 36.3C112.93 36.29 111.14 35.21 111.08 33.96C111.02 32.6 112.82 31.31 113.88 31.14C114.86 30.98 118.19 31.26 118.18 33.73Z"/></g><defs><clipPath id="clip0"><rect width="162.52" height="120.54" fill="#fff"/></clipPath></defs></svg>

<svg xmlns="http://www.w3.org/2000/svg" width="163" height="121" fill="none"><g clip-path="url(#clip0)" fill="#FCDCD9"><path d="M5.39 19.39h7.18c0-3.83-.21-7.6.11-11.33.12-1.44.63-4.14 2.22-4.16 1.43-.02 1.93 2.41 2.1 3.72.5 3.76.58 7.58.85 11.7 1.52.12 2.94.22 5.01.38 0-4.24-.2-8.18.11-12.08.11-1.43.64-4.15 2.22-4.14 1.61.01 2.18 2.79 2.23 4.22.34 10.97.34 21.95.58 32.93.36 16.29.83 32.58 1.26 48.88.02.67-.01 1.34.08 1.99 1.24 9.35 1.25 9.37-8.47 9.35-4.99-.01-9.98-.13-14.97-.14-3.43 0-4.8-1.1-4.79-5.04C1.15 72.55.86 49.42.6 26.3.53 20.05-.05 13.81 0 7.57.02 6 .61 2.9 2.38 2.88 4 2.86 4.49 5.65 4.67 7.14c.5 3.92.5 7.89.72 12.25zm8.03 76.06v-58.5H6.53v57.92c2.53.22 4.64.39 6.89.58zm5.86-58.05c0 18.83-.08 37.06.17 55.29.02 1.23 2.46 2.42 3.77 3.64 0-19.4-.01-37.65.01-55.9 0-3.6-2.05-3.58-3.95-3.03zm-6.63-6.33V25.1H5.59c.1 1.99.18 3.59.28 5.47 2.33.16 4.4.32 6.78.5zm10.09.98v-7.03h-4.79v6.53c1.67.17 2.98.31 4.79.5zm77.04 82.1V89.69c-5.96 0-11.74.08-17.52-.03-2.98-.06-5.98-.34-8.92-.83-.9-.15-2.42-.97-2.44-2.04-.02-1.19 1.64-2.19 2.61-2.35 2.93-.46 5.94-.45 9.51-.65-2.68-4.69-5.24-9.06-7.67-13.49-1.1-2.01-2.29-4.09-2.79-6.28-.56-2.45.53-4.08 3.5-4.08 9.15.01 18.31-.23 27.46-.09 1.33.02 3.13 1.31 3.78 2.51.47.87-.28 2.82-1.06 3.86-4.36 5.82-8.89 11.52-14.2 18.34 3.24 0 5.3.06 7.36-.01 3.81-.14 5.37 1.64 5.32 5.43-.12 8.09-.04 16.19-.04 24.73 15.75 0 30.38-.04 45.02.03 3.15.02 6.32.26 9.42.77 1.21.2 3.29.81 3.38 2.16.09 1.47-2.18 2.71-3.33 2.76-5.14.25-10.31 0-15.47-.05-12.96-.12-25.92-.19-38.88-.38-2.64-.04-5.34-.27-7.89-.89-1.32-.32-3.68-1.11-3.58-2.59.11-1.61 2.78-1.66 4.24-2.33.55-.24 1.3-.04 2.19-.04zM88.04 80.33c3.9-5.05 7.37-9.54 11.18-14.46H79.5c2.93 4.96 5.59 9.47 8.54 14.46zm29.28-53.68c-.5-1.73-1.29-3.45-1.43-5.21-.28-3.64-.38-7.32-.24-10.97.12-3.17-1.13-4.68-4.28-4.67-21.8.04-43.6.08-65.4.14-.43 0-.86.26-.9.28 5.18 5.51 10.42 10.99 15.52 16.6.86.95 1.85 2.73 1.5 3.61-.52 1.3-2.18 3-3.38 3.02-6.97.13-13.96-.09-20.93-.47-.78-.04-2.03-1.75-2.12-2.76-.59-7.12-1.17-14.26-1.12-21.39.01-1.28 2.9-3.57 4.54-3.64 9.12-.4 18.27-.18 27.41-.33C79.77.63 93.04-.13 106.31.05c15.71.22 13.41.32 14.36 14.03.18 2.65.23 5.35-.05 7.98-.17 1.59-1.08 3.1-1.66 4.64a42.3 42.3 0 0 0-1.64-.05zm-64.14-2.67c.11-.38.22-.76.33-1.13L39.73 9.91c.5 5.31.86 9.19 1.26 13.52 4.13.18 8.16.36 12.19.55z"/><path d="M120.36 63.53c3.08.33 5.29.25 7.28.88 1.58.5 3.7 1.62 4.09 2.91.38 1.25-.79 3.41-1.9 4.59-3.11 3.33-6.54 6.37-10.38 10.04 10.13 0 19.22-.02 28.31.01 3.48.01 6.98-.12 10.42.28 1.27.15 3.48 1.06 3.57 2.54.09 1.53-2.09 2.75-3.36 3.01-2.22.46-4.62-.01-6.95-.01-12.83.02-25.65.1-38.48.03-1.29-.01-3.3-.09-3.86-1.34-.55-1.24.7-2.83 1.58-3.72 4.1-4.11 8.4-8.02 13.63-12.95-3.73-.46-6.11-.6-8.41-1.07-3.94-.82-4.64-2.83-1.99-5.85 3.03-3.44 6.25-6.72 9.76-10.47-3.38-.6-6.33-.91-9.15-1.67-3.52-.95-4.19-3.25-1.56-5.81 4.51-4.41 9.2-8.65 14-12.75.82-.7 2.99-1.4 3.88-.42.95 1.05-.04 3.26-.87 4.11-3.29 3.38-6.9 6.45-11.06 10.24 3.85.64 6.62.93 9.3 1.58 4.55 1.11 5.16 3.16 1.91 6.51-2.98 3.04-6.14 5.88-9.76 9.33zM74.96 17.8c.13-1.52 2.2-3.97 3.57-4.11 6.76-.7 13.59-.75 20.39-1.05 4.07-.18 6.09 1.34 6.05 5.81-.09 10.61.32 21.23.14 31.83-.02 1.22-2.4 3.39-3.74 3.42-7.81.23-15.63 0-23.45-.16-3.1-.06-3.71-2.17-3.68-4.81.08-5 .28-25.65.72-30.93zm17.04.7v29.66h7.31V18.5H92zm-5.66 30.09V18.85h-6.4v29.29c1.99.14 3.74.26 6.4.45zm66.41-34.31c3.04 3.32 5.76 6.01 8.1 9.01.77.99 1.86 3.18.81 4.14-1.11 1.02-3.2-.38-4.3-1.22-2.87-2.19-5.46-4.75-8.28-7.26-2.93 2.39-5.35 4.68-8.11 6.46-1.06.68-3.42 1.38-4.34.24-.92-1.14.26-3.22 1.11-4.19 2.04-2.33 4.53-4.28 7.51-7.01-2.88-2.62-5.62-4.79-7.92-7.36-.86-.97-1.98-3.21-.98-4.33 1.08-1.22 3.82-.36 4.76.51 2.41 2.22 4.26 5.05 6.44 7.77 3.51-3.16 5.67-5.51 8.25-7.26 1.46-.99 4.09-2.77 5.41-1.43 1.34 1.36-.44 4.09-1.53 5.45-1.93 2.42-4.53 4.3-6.93 6.48zm5.79 79.34c1.35.1 3.85.68 3.9 2.19.05 1.63-2.71 2.61-4.06 2.61-15.42-.05-30.85-.29-46.26-.71-1.13-.03-3.35-1.27-3.31-2.72.04-1.47 2.3-2.49 3.5-2.54 5.97-.27 36.82.45 46.23 1.17z"/><path d="M146.72 54.76c0-6-.15-12.01.11-17.99.06-1.42.77-4.15 2.38-4.16 1.63-.01 2.44 2.77 2.46 4.17.16 11.83.12 23.66-.12 35.49-.03 1.59-.61 4.77-2.39 4.73-1.75-.04-2.08-3.14-2.16-4.75-.26-5.82-.22-17.49-.28-17.49zM162 73.16c-.05 1.3-.63 3.72-2.1 3.82-1.43.1-2.5-2.27-2.51-3.42-.11-12.13-.04-24.26.23-36.38.03-1.51.69-4.62 2.39-4.49 1.79.13 1.76 3.34 1.83 5.04.24 5.82.38 29.45.16 35.43zM60.6 69.57c.07-1.33.69-3.71 2.18-3.87 1.47-.16 2.83 2.13 2.88 3.26.45 10.13.7 20.26.71 30.4 0 1.43-.73 4.31-2.39 4.31-1.79 0-2.46-3.06-2.57-4.67-.34-4.97-1.07-24.63-.81-29.43zM42.62 84.55c0 6 .18 10.34-.1 14.65-.1 1.59-.29 4.5-1.98 4.65-1.79.16-2.81-2.91-2.92-4.46-.52-7.3-.6-14.63-.8-21.95-.07-2.5-.33-5.03.01-7.48.16-1.16.98-3.17 2.32-3.22 1.35-.06 2.5 1.94 2.6 3.03.54 5.45.68 10.95.87 14.78zm11.61 4.86c0 3.49.22 7.01-.12 10.47-.12 1.25-.99 3.52-2.44 3.54-1.38.01-2.27-2.14-2.37-3.31-.34-3.8-.9-20.73-1.21-25.36-.07-.99-.37-2.15.01-2.96.88-1.91 1.09-5.61 3.2-5.48 2.06.13 2.27 3.75 2.38 5.68.31 5.79.4 17.42.55 17.42zm87.89-34.2c0 5.82.14 11.64-.1 17.45-.06 1.47-.46 4.26-2.07 4.33-1.55.07-2.33-2.63-2.34-3.97-.15-12.12-.1-24.24.08-36.36.02-1.34.41-3.94 1.9-3.99 1.58-.05 2.23 2.7 2.28 4.09.25 6.14.11 12.29.11 18.44.05.01.09.01.14.01zM50.57 40.44c-4.15 0-8.31.21-12.43-.13-1.22-.1-3.44-1.16-3.46-2.64-.02-1.37 2.07-2.56 3.12-2.57 8.94-.06 17.88.11 26.82.43.91.03 2.7 1.09 2.65 2.28-.06 1.36-2.13 2.28-3.27 2.35-4.46.28-8.94.11-13.42.11-.01.07-.01.12-.01.17zm4.88 10.5c-5.45 0-10.91.19-16.33-.15-1.25-.08-3.78-1.46-3.58-3.04.19-1.49 2.66-1.97 4.01-1.99 7.81-.11 15.63-.05 23.43.26 1.4.06 4.13.77 4.12 2.38-.01 1.61-2.7 2.11-4.18 2.35-2.43.39-4.98.11-7.47.11-.01.02 0 .05 0 .08zm-3.78 4.81c3.81 0 7.63-.18 11.42.1 1.28.1 3.55.7 3.69 2.13.13 1.36-2 2.61-3.04 2.65-8.6.28-17.21.35-25.81.21-.99-.02-2.99-1.24-2.93-2.56.06-1.37 2.13-2.31 3.27-2.38 4.45-.28 8.93-.11 13.41-.11-.01-.02-.01-.03-.01-.04zm79.41-33.68c-.17 1.31-.84 3.65-2.31 3.69-1.42.04-2.34-2.25-2.42-3.45-.4-5.77-.59-11.58-.45-17.36.03-1.34.97-3.98 2.56-3.95 1.46.03 2.05 2.41 2.2 3.72.34 2.95.78 14.59.42 17.35zm-47.26 72.2c2.58.12 5.92.07 9.18.55 1.09.16 3.04 1.23 2.97 2.55-.07 1.33-2.16 2.23-3.23 2.22-6.28-.03-12.57-.3-18.83-.77-1.09-.08-3.14-1.06-3.12-2.38.02-1.2 1.88-1.97 2.89-2.06 3.13-.28 6.28-.11 10.14-.11zm34.36-60.54c-.01 2.46-3.2 2.57-4.32 2.57-.93-.01-2.72-1.09-2.78-2.34-.06-1.36 1.74-2.65 2.8-2.82.98-.16 4.31.12 4.3 2.59z"/></g><defs><clipPath id="clip0"><path fill="#fff" d="M0 0H162.52V120.54H0z"/></clipPath></defs></svg>
